img/contacts/phone.svg

<svg width="80" height="80" viewBox="0 0 80 80" fill="none" xmlns="http://www.w3.org/2000/svg">
<path d="M73.3331 56.4006V66.4006C73.3368 67.329 73.1467 68.2479 72.7748 69.0985C72.4028 69.9491 71.8574 70.7126 71.1733 71.3402C70.4892 71.9678 69.6816 72.4456 68.8022 72.743C67.9228 73.0404 66.991 73.1509 66.0664 73.0673C55.8092 71.9528 45.9564 68.4478 37.2997 62.834C29.2458 57.7162 22.4175 50.8879 17.2997 42.834C11.6663 34.138 8.16051 24.2373 7.06636 13.934C6.98306 13.0122 7.09261 12.0832 7.38803 11.2061C7.68345 10.3289 8.15827 9.52295 8.78225 8.83939C9.40623 8.15583 10.1657 7.60968 11.0123 7.23572C11.859 6.86176 12.7742 6.66819 13.6997 6.66732H23.6997C25.3174 6.65139 26.8857 7.22424 28.1122 8.27909C29.3388 9.33394 30.14 10.7988 30.3664 12.4006C30.7884 15.6009 31.5712 18.7431 32.6997 21.7673C33.1482 22.9604 33.2452 24.257 32.9794 25.5036C32.7135 26.7501 32.0959 27.8944 31.1997 28.8006L26.9664 33.034C31.7116 41.3791 38.6212 48.2888 46.9664 53.034L51.1997 48.8006C52.106 47.9044 53.2502 47.2868 54.4968 47.021C55.7433 46.7551 57.04 46.8522 58.233 47.3006C61.2573 48.4291 64.3995 49.2119 67.5997 49.634C69.2189 49.8624 70.6977 50.678 71.7548 51.9256C72.8119 53.1733 73.3736 54.7659 73.3331 56.4006Z" stroke="#1E489B" stroke-width="2" stroke-linecap="round" stroke-linejoin="round"/>
</svg>

<svg width="80" height="80" fill="none" xmlns="http://www.w3.org/2000/svg"><path d="M73.333 56.4v10a6.668 6.668 0 0 1-7.267 6.667A65.967 65.967 0 0 1 37.3 62.834a65 65 0 0 1-20-20 65.967 65.967 0 0 1-10.234-28.9A6.666 6.666 0 0 1 13.7 6.667h10a6.666 6.666 0 0 1 6.666 5.734 42.794 42.794 0 0 0 2.334 9.366 6.667 6.667 0 0 1-1.5 7.034l-4.234 4.233a53.334 53.334 0 0 0 20 20l4.234-4.233a6.666 6.666 0 0 1 7.033-1.5 42.803 42.803 0 0 0 9.367 2.333 6.667 6.667 0 0 1 5.733 6.767z" stroke="#1E489B" stroke-width="2" stroke-linecap="round" stroke-linejoin="round"/></svg>
